!!!OTL: DES JAHRES LETZTE STUNDE
!!!ARE: Europa, Mitteleuropa, Deutschland
!!!SCT: F1021
!!!YEM: Copyright 1995, estate of Helmut Schaffrath.
**kern
*ICvox
*Ivox
*M4/4
*k[b-e-a-]
*E-:
{4B-
=1
4e-
4g
4b-
4b-
=2
2b-
4g}
{8f
8e-
=3
4f
4f
4f
4B-
=4
2g
4r}
{4e-
=5
4g
4b-
4ee-
4ee-
=6
2ee-
4cc}
{8b-
8a-
=7
4b-
4b-
4dd
4cc
=8
2b-
4r}
{4f
=9
4b-
4cc
4dd-
4dd-
=10
2dd-
4cc}
{4b-
=11
4a-
4g
4f
4e-
=12
2g
4f}
{4B-
=13
4e-
4g
4b-
4b-
=14
4.ee-
8ee-
4ee-}
{4e-
=15
4f
4g
4a-
4g
=16
2c
2d
=17
2e-
4r}
{4e-
=18
4g
4e-
4b-
4g
=19
2.ee-
4ee-
=20
2.ee-}
{4e-
=21
4f
4g
4a-
4g
=22
2cc
2d
=23
2e-
4r}
==
!!!AGN: Erbauungs - Lied, religioes, Fest, Neujahr
!!!ONB: ESAC (Essen Associative Code) Database: FINK
!!!AMT: simple quadruple
!!!AIN: vox
!!!EED: Helmut Schaffrath
!!!EEV: 1.0
*-
